X: 52
T:The Hilland Solo
M:4/4
L:1/8
S:Walsh 1731
N:aka Dunbroon(RC)
Z:ps
K:A
ef fa fg fg |dg dg BGB2|ef ea fg eg|ef ea cAc2|
ef fa fg fg |dg dg BGB2|eA cA eA cA|eA cA BG B2|eA cA eA cA|BG BG BG B2|
e/e/e/e/ ee f/f/f/f/ ff|e/e/e/e/  ee cAc2|e/e/e/e/ ee f/f/f/f/ ff|d/d/d/
d/ dd 
BGB2|e/e/e/e/ ee a/a/a/a/ aa|e/e/e/e/ ee dBd2|d/d/d/d/ da c/c/c/c/ ca|B/
B/B/B/ 
Bg BGB2|Ac/d/e2 Af/g/a2|Ac/d/e2cAc2|Ac/d/e2 Af/g/a2|AB/c/d2BGB2|Ac/d/e2 
Af/g/a2|Ac/d/e2cAc2|d/d/d/d/ da c/c/c/c/ ca|B/B/B/B/ Bg BGB2|A/B/c/d/ eA
 e
A d2|A/B/c/d/ eA eA c2|Ac/d/ eA eAc2|Ae/f/ gd BGB2|e/e/e/e/ e/e/e/e/ f/f
/f/f/ f/f/f/f/| e/e/e/e/ e/e/e/e/ cAc2|f/f/f/f/ g/g/g/g/  f/f/f/f/ f/f/f
